X: 2
T: Tam's Slow March
Z: Tøm
S: https://thesession.org/tunes/12769#setting21635
R: reel
M: 4/4
L: 1/8
K: Gmaj
cB/A/|G3D B,3G,|C2 E2 G2 FE|D2 B2 cB A<G|F2 A2 A2 (3cBA|
G3D B,3G,|C2 E2 G2 FE|D2 B2 cA F<D|G4 G2:|
|:Bc|d3B G2 Bd|e2 c2 A2 Bc|d3B cB A<G|F2 A2 A2 (3cBA|
G3D B,3G,|C2 E2 G2 FE|D2B2 cA F<D|G4G2:|
|:zD|GF ED CB, A,G,|B,2 D2 G3D|ED EG cB AG|F/G/A- AF D2 EF|
GF ED CB, A,G,|B,2 D2 G3D|E2 c2 BA G<F|G6 Bc|
d3B G2 Bd|e2 c2 A2 Bc|d3B cB A<G|F2 A2 A2 (3cBA|
G3D B,3G,|C2 E2 G2 FE|D2 B2 cA F<D|G4 G2:|
